X:1
T:Lugano, 87.87 D
T:Lugano, 87.87 D
T:Catholic Hymn Tunes, 1849
T:Public Domain Courtesy of the Cyber Hymnal™
C:Catholic Hymn Tunes, 1849
Z:Public Domain
Z:Courtesy of the Cyber Hymnal™
%%score ( 1 2 ) ( 3 4 )
L:1/8
Q:1/4=110
M:4/4
K:G
V:1 treble 
V:2 treble 
V:3 bass 
V:4 bass 
V:1
 [DG]3 [DG] [DF]2 (GF) | [CE]3 [CE] [DF]2 F2 | [B,G]2 (FG) (EF) ([DG][EA]) | [DG]2 [DF]2 [DG]4 | %4
 [DB]3 [DB] [DA]2 [FB]2 | G3 z G [DA]2 A2 | [DB]2 (AB) [Cc]2 ([DB][Ec]) | [DB]2 [FA]2 G4 | %8
 [DB]3 [DB] [DA]2 [Dd]2 | [Ed]2 [E^c]2 [Fd]2 [Fd]2 | [Fd]3 [Fd] [Gc]2 B2 | [EA]2 [EA]2 [^DB]4 | %12
 B3 z B A2 d2 | [Ed]2 [E^c]2 [Fd]2 [Fd]2 | d3 z d c2 [GB]2 | [GA]2 [FA]2 G4 |] %16
V:2
 x6 D2 | x6 (DC) | x2 D2 E2 x2 | x8 | x8 | (ED) (^C2 x FE) x2 | x2 D2 x4 | x4 G4 | x8 | x8 | %10
 x6 (GF) | x8 | E2 ^C2 (DA) (GF) x | x8 | F2 (E2 EF) x3 | x4 G4 |] %16
V:3
 [G,B,]3 [G,B,] [D,A,]2 [B,,G,]2 | [C,G,]2 [A,,A,]2 [B,,A,]2 [D,A,]2 | %2
 [E,G,]2 [B,,G,]2 (G,A,) ([B,,B,][A,,C]) | [D,B,]2 [D,A,]2 [G,,B,]4 | G,3 G, [F,A,]2 [D,D]2 | %5
 [E,B,]2 [E,G,]2 (F,A,) (DC) x | [G,B,]2 [D,F,]2 [E,G,]2 G,2 | (G,B,) DC [G,,B,]4 | %8
 [G,,G,]3 [B,,G,] [D,F,]2 [F,A,]2 | [G,B,]2 A,2 [D,A,]2 [D,A,]2 | [B,,B,]3 [B,,B,] (G,A,) B,2 | %11
 [C,C]2 [C,E,]2 [B,,F,]4 | [E,G,]2 [E,G,]2 [F,A,]2 B,2 x | [G,B,]2 A,2 [D,A,]2 [D,A,]2 | %14
 (B,A,) [E,^G,]2 [A,,A,]2 [B,,D]2 x | [C,E]2 (DC) [G,,B,]4 |] %16
V:4
 x8 | x8 | x4 C,2 x2 | x8 | G,3 G, x4 | x4 F,2 D,2 x | x6 (D,C,) | D,2 D,2 x4 | x8 | x2 A,2 x4 | %10
 x4 E,2 (E,D,) | x8 | x6 (B,A,) x | x2 A,2 x4 | B,,2 x7 | x2 D,2 x4 |] %16

